Sources/FrostedUI/Resources/Icons.xcassets/squareAdd12.imageset/square-add-12.svg

<svg width="12" height="12" viewBox="0 0 12 12" fill="none" xmlns="http://www.w3.org/2000/svg" data-fui-icon="true">
  <path
    d="M9.125 1.125C10.0915 1.125 10.875 1.90851 10.875 2.875V5.625C10.875 6.03921 10.5392 6.375 10.125 6.375C9.71079 6.375 9.375 6.03921 9.375 5.625V2.875C9.375 2.73692 9.26308 2.625 9.125 2.625H2.875C2.73693 2.625 2.625 2.73693 2.625 2.875V9.125C2.625 9.26308 2.73692 9.375 2.875 9.375H6.125C6.53921 9.375 6.875 9.71079 6.875 10.125C6.875 10.5392 6.53921 10.875 6.125 10.875H2.875C1.90851 10.875 1.125 10.0915 1.125 9.125V2.875C1.125 1.9085 1.9085 1.125 2.875 1.125H9.125ZM9.125 6.375C9.53921 6.375 9.875 6.71079 9.875 7.125V7.875H10.625C11.0392 7.875 11.375 8.21079 11.375 8.625C11.375 9.03921 11.0392 9.375 10.625 9.375H9.875V10.125C9.875 10.5392 9.53921 10.875 9.125 10.875C8.71079 10.875 8.375 10.5392 8.375 10.125V9.375H7.625C7.21079 9.375 6.875 9.03921 6.875 8.625C6.875 8.21079 7.21079 7.875 7.625 7.875H8.375V7.125C8.375 6.71079 8.71079 6.375 9.125 6.375Z"
    fill="currentColor"
  />
</svg>

<svg xmlns="http://www.w3.org/2000/svg" width="12" height="12" fill="none" data-fui-icon="true" viewBox="0 0 12 12"><path fill="currentColor" d="M9.125 1.125c.966 0 1.75.784 1.75 1.75v2.75a.75.75 0 0 1-1.5 0v-2.75a.25.25 0 0 0-.25-.25h-6.25a.25.25 0 0 0-.25.25v6.25c0 .138.112.25.25.25h3.25a.75.75 0 0 1 0 1.5h-3.25a1.75 1.75 0 0 1-1.75-1.75v-6.25c0-.966.784-1.75 1.75-1.75zm0 5.25a.75.75 0 0 1 .75.75v.75h.75a.75.75 0 0 1 0 1.5h-.75v.75a.75.75 0 0 1-1.5 0v-.75h-.75a.75.75 0 0 1 0-1.5h.75v-.75a.75.75 0 0 1 .75-.75"/></svg>
